static/img/kroki/86e59e6d51cba0ca8c2cb58615cca4fd.svg

<?xml version="1.0" encoding="us-ascii" standalone="no"?><svg xmlns="http://www.w3.org/2000/svg" xmlns:xlink="http://www.w3.org/1999/xlink" contentStyleType="text/css" height="252px" preserveAspectRatio="none" style="width:683px;height:252px;" version="1.1" viewBox="0 0 683 252" width="683px" zoomAndPan="magnify"><defs/><g><!--class gcp_accelerator_type--><g id="elem_gcp_accelerator_type"><rect codeLine="23" fill="#3D176E" height="39.7891" id="gcp_accelerator_type" rx="2.5" ry="2.5" style="stroke:#000D19;stroke-width:0.5;" width="217" x="7" y="206.58"/><ellipse cx="22" cy="226.4745" fill="#ADD1B2" rx="11" ry="11" style="stroke:#181818;stroke-width:1.0;"/><path d="M24.9688,232.1152 Q24.3906,232.412 23.75,232.5527 Q23.1094,232.7089 22.4063,232.7089 Q19.9063,232.7089 18.5781,231.0683 Q17.2656,229.412 17.2656,226.287 Q17.2656,223.162 18.5781,221.5058 Q19.9063,219.8495 22.4063,219.8495 Q23.1094,219.8495 23.75,220.0058 Q24.4063,220.162 24.9688,220.4589 L24.9688,223.1777 Q24.3438,222.5995 23.75,222.3339 Q23.1563,222.0527 22.5313,222.0527 Q21.1875,222.0527 20.5,223.1308 Q19.8125,224.1933 19.8125,226.287 Q19.8125,228.3808 20.5,229.4589 Q21.1875,230.5214 22.5313,230.5214 Q23.1563,230.5214 23.75,230.2558 Q24.3438,229.9745 24.9688,229.3964 L24.9688,232.1152 Z " fill="#000000"/><text fill="#D9B8FF" font-family="Helvetica" font-size="17" lengthAdjust="spacing" textLength="175" x="41" y="232.3598">gcp_accelerator_type</text></g><!--class gcp_instance--><g id="elem_gcp_instance"><rect codeLine="26" fill="#3D176E" height="39.7891" id="gcp_instance" rx="2.5" ry="2.5" style="stroke:#000D19;stroke-width:0.5;" width="149" x="259" y="206.58"/><ellipse cx="274" cy="226.4745" fill="#ADD1B2" rx="11" ry="11" style="stroke:#181818;stroke-width:1.0;"/><path d="M276.9688,232.1152 Q276.3906,232.412 275.75,232.5527 Q275.1094,232.7089 274.4063,232.7089 Q271.9063,232.7089 270.5781,231.0683 Q269.2656,229.412 269.2656,226.287 Q269.2656,223.162 270.5781,221.5058 Q271.9063,219.8495 274.4063,219.8495 Q275.1094,219.8495 275.75,220.0058 Q276.4063,220.162 276.9688,220.4589 L276.9688,223.1777 Q276.3438,222.5995 275.75,222.3339 Q275.1563,222.0527 274.5313,222.0527 Q273.1875,222.0527 272.5,223.1308 Q271.8125,224.1933 271.8125,226.287 Q271.8125,228.3808 272.5,229.4589 Q273.1875,230.5214 274.5313,230.5214 Q275.1563,230.5214 275.75,230.2558 Q276.3438,229.9745 276.9688,229.3964 L276.9688,232.1152 Z " fill="#000000"/><text fill="#D9B8FF" font-family="Helvetica" font-size="17" lengthAdjust="spacing" textLength="107" x="293" y="232.3598">gcp_instance</text></g><!--class gcp_instance_template--><g id="elem_gcp_instance_template"><rect codeLine="29" fill="#3D176E" height="39.7891" id="gcp_instance_template" rx="2.5" ry="2.5" style="stroke:#000D19;stroke-width:0.5;" width="234" x="442.5" y="206.58"/><ellipse cx="457.5" cy="226.4745" fill="#ADD1B2" rx="11" ry="11" style="stroke:#181818;stroke-width:1.0;"/><path d="M460.4688,232.1152 Q459.8906,232.412 459.25,232.5527 Q458.6094,232.7089 457.9063,232.7089 Q455.4063,232.7089 454.0781,231.0683 Q452.7656,229.412 452.7656,226.287 Q452.7656,223.162 454.0781,221.5058 Q455.4063,219.8495 457.9063,219.8495 Q458.6094,219.8495 459.25,220.0058 Q459.9063,220.162 460.4688,220.4589 L460.4688,223.1777 Q459.8438,222.5995 459.25,222.3339 Q458.6563,222.0527 458.0313,222.0527 Q456.6875,222.0527 456,223.1308 Q455.3125,224.1933 455.3125,226.287 Q455.3125,228.3808 456,229.4589 Q456.6875,230.5214 458.0313,230.5214 Q458.6563,230.5214 459.25,230.2558 Q459.8438,229.9745 460.4688,229.3964 L460.4688,232.1152 Z " fill="#000000"/><text fill="#D9B8FF" font-family="Helvetica" font-size="17" lengthAdjust="spacing" textLength="192" x="476.5" y="232.3598">gcp_instance_template</text></g><!--class gcp_machine_type--><g id="elem_gcp_machine_type"><rect codeLine="32" fill="#3D176E" height="39.7891" id="gcp_machine_type" rx="2.5" ry="2.5" style="stroke:#000D19;stroke-width:0.5;" width="197" x="235" y="106.79"/><ellipse cx="250" cy="126.6845" fill="#ADD1B2" rx="11" ry="11" style="stroke:#181818;stroke-width:1.0;"/><path d="M252.9688,132.3252 Q252.3906,132.622 251.75,132.7627 Q251.1094,132.9189 250.4063,132.9189 Q247.9063,132.9189 246.5781,131.2783 Q245.2656,129.622 245.2656,126.497 Q245.2656,123.372 246.5781,121.7158 Q247.9063,120.0595 250.4063,120.0595 Q251.1094,120.0595 251.75,120.2158 Q252.4063,120.372 252.9688,120.6689 L252.9688,123.3877 Q252.3438,122.8095 251.75,122.5439 Q251.1563,122.2627 250.5313,122.2627 Q249.1875,122.2627 248.5,123.3408 Q247.8125,124.4033 247.8125,126.497 Q247.8125,128.5908 248.5,129.6689 Q249.1875,130.7314 250.5313,130.7314 Q251.1563,130.7314 251.75,130.4658 Q252.3438,130.1845 252.9688,129.6064 L252.9688,132.3252 Z " fill="#000000"/><text fill="#D9B8FF" font-family="Helvetica" font-size="17" lengthAdjust="spacing" textLength="155" x="269" y="132.5698">gcp_machine_type</text></g><!--class gcp_sku--><g id="elem_gcp_sku"><rect codeLine="35" fill="#3D176E" height="39.7891" id="gcp_sku" rx="2.5" ry="2.5" style="stroke:#000D19;stroke-width:0.5;" width="108" x="279.5" y="7"/><ellipse cx="294.5" cy="26.8945" fill="#ADD1B2" rx="11" ry="11" style="stroke:#181818;stroke-width:1.0;"/><path d="M297.4688,32.5352 Q296.8906,32.832 296.25,32.9727 Q295.6094,33.1289 294.9063,33.1289 Q292.4063,33.1289 291.0781,31.4883 Q289.7656,29.832 289.7656,26.707 Q289.7656,23.582 291.0781,21.9258 Q292.4063,20.2695 294.9063,20.2695 Q295.6094,20.2695 296.25,20.4258 Q296.9063,20.582 297.4688,20.8789 L297.4688,23.5977 Q296.8438,23.0195 296.25,22.7539 Q295.6563,22.4727 295.0313,22.4727 Q293.6875,22.4727 293,23.5508 Q292.3125,24.6133 292.3125,26.707 Q292.3125,28.8008 293,29.8789 Q293.6875,30.9414 295.0313,30.9414 Q295.6563,30.9414 296.25,30.6758 Q296.8438,30.3945 297.4688,29.8164 L297.4688,32.5352 Z " fill="#000000"/><text fill="#D9B8FF" font-family="Helvetica" font-size="17" lengthAdjust="spacing" textLength="66" x="313.5" y="32.7798">gcp_sku</text></g><!--link gcp_machine_type to gcp_accelerator_type--><g id="link_gcp_machine_type_gcp_accelerator_type"><path codeLine="38" d="M290.43,147.01 C252.21,164.15 202.144,186.6032 163.954,203.7432 " fill="none" id="gcp_machine_type-to-gcp_accelerator_type" style="stroke:#1A83AF;stroke-width:2.0;"/><polygon fill="#1A83AF" points="158.48,206.2,168.3288,206.1642,163.0416,204.1527,165.0531,198.8655,158.48,206.2" style="stroke:#1A83AF;stroke-width:2.0;"/></g><!--link gcp_machine_type to gcp_instance--><g id="link_gcp_machine_type_gcp_instance"><path codeLine="39" d="M333.5,147.01 C333.5,164.15 333.5,183.06 333.5,200.2 " fill="none" id="gcp_machine_type-to-gcp_instance" style="stroke:#1A83AF;stroke-width:2.0;"/><polygon fill="#1A83AF" points="333.5,206.2,337.5,197.2,333.5,201.2,329.5,197.2,333.5,206.2" style="stroke:#1A83AF;stroke-width:2.0;"/></g><!--link gcp_machine_type to gcp_instance_template--><g id="link_gcp_machine_type_gcp_instance_template"><path codeLine="40" d="M378.15,147.01 C417.77,164.15 469.8439,186.6762 509.4339,203.8162 " fill="none" id="gcp_machine_type-to-gcp_instance_template" style="stroke:#1A83AF;stroke-width:2.0;"/><polygon fill="#1A83AF" points="514.94,206.2,508.27,198.9535,510.3516,204.2135,505.0916,206.295,514.94,206.2" style="stroke:#1A83AF;stroke-width:2.0;"/></g><!--link gcp_sku to gcp_machine_type--><g id="link_gcp_sku_gcp_machine_type"><path codeLine="41" d="M333.5,47.22 C333.5,64.36 333.5,83.27 333.5,100.41 " fill="none" id="gcp_sku-to-gcp_machine_type" style="stroke:#1A83AF;stroke-width:2.0;"/><polygon fill="#1A83AF" points="333.5,106.41,337.5,97.41,333.5,101.41,329.5,97.41,333.5,106.41" style="stroke:#1A83AF;stroke-width:2.0;"/></g><!--SRC=[bP9DJm8n48Rl-okQS2PX9GfSJ5OIeXTYn9inP6YdRBExxMOwID3utsL5IDtoeTTvdyuyCsbk50giQjw82gi5aazyOMmD19N8YDnwx4f7egCrwFwW7KwSvOl052eKzrY-8Hi9RU8vDxAmwBsu2g8xaCMItCggNNici7uReUM06fVWVSPCPh5Y36JKQ37KkassctRwAXtSO8GvKaW_IA_NK-ceZLmSTNRl0p4pxoZIy6XJnnXfHYE-gREM3H58HelkyvEEZw2KiKjn7TIUTavaaNxLPpaejsve3QKFntX6GiUR6iVHLZWQAZqu2Z-SWXFPd4uiPJq7AR540dOqRzw8ZoJv379ZFOEL9-jptdxx4ZW2Af2viNYqgIzMkr84TbywQJRiPvFNxkrHlpyysQlz0priaUpr8ZHib7m1]--></g></svg>

<svg xmlns="http://www.w3.org/2000/svg" width="683" height="252" viewBox="0 0 683 252"><rect width="217" height="39.789" x="7" y="206.58" fill="#3D176E" rx="2.5" ry="2.5" style="stroke:#000d19;stroke-width:.5"/><circle cx="22" cy="226.475" r="11" fill="#ADD1B2" style="stroke:#181818;stroke-width:1"/><path d="M24.969 232.115q-.578.297-1.219.438-.64.156-1.344.156-2.5 0-3.828-1.64-1.312-1.657-1.312-4.782t1.312-4.781q1.328-1.656 3.828-1.656.703 0 1.344.156.656.156 1.219.453v2.719q-.625-.578-1.219-.844-.594-.281-1.219-.281-1.343 0-2.031 1.078-.687 1.062-.687 3.156t.687 3.172q.688 1.062 2.031 1.062.625 0 1.219-.265.594-.281 1.219-.86z"/><text x="41" y="232.36" fill="#D9B8FF" font-family="Helvetica" font-size="17" textLength="175">gcp_accelerator_type</text><rect width="149" height="39.789" x="259" y="206.58" fill="#3D176E" rx="2.5" ry="2.5" style="stroke:#000d19;stroke-width:.5"/><circle cx="274" cy="226.475" r="11" fill="#ADD1B2" style="stroke:#181818;stroke-width:1"/><path d="M276.969 232.115q-.578.297-1.219.438-.64.156-1.344.156-2.5 0-3.828-1.64-1.312-1.657-1.312-4.782t1.312-4.781q1.328-1.656 3.828-1.656.703 0 1.344.156.656.156 1.219.453v2.719q-.625-.578-1.219-.844-.594-.281-1.219-.281-1.344 0-2.031 1.078-.687 1.062-.687 3.156t.687 3.172q.688 1.062 2.031 1.062.625 0 1.219-.265.594-.281 1.219-.86z"/><text x="293" y="232.36" fill="#D9B8FF" font-family="Helvetica" font-size="17" textLength="107">gcp_instance</text><rect width="234" height="39.789" x="442.5" y="206.58" fill="#3D176E" rx="2.5" ry="2.5" style="stroke:#000d19;stroke-width:.5"/><circle cx="457.5" cy="226.475" r="11" fill="#ADD1B2" style="stroke:#181818;stroke-width:1"/><path d="M460.469 232.115q-.578.297-1.219.438-.64.156-1.344.156-2.5 0-3.828-1.64-1.312-1.657-1.312-4.782t1.312-4.781q1.328-1.656 3.828-1.656.703 0 1.344.156.656.156 1.219.453v2.719q-.625-.578-1.219-.844-.594-.281-1.219-.281-1.344 0-2.031 1.078-.687 1.062-.687 3.156t.687 3.172q.688 1.062 2.031 1.062.625 0 1.219-.265.594-.281 1.219-.86z"/><text x="476.5" y="232.36" fill="#D9B8FF" font-family="Helvetica" font-size="17" textLength="192">gcp_instance_template</text><rect width="197" height="39.789" x="235" y="106.79" fill="#3D176E" rx="2.5" ry="2.5" style="stroke:#000d19;stroke-width:.5"/><circle cx="250" cy="126.684" r="11" fill="#ADD1B2" style="stroke:#181818;stroke-width:1"/><path d="M252.969 132.325q-.578.297-1.219.438-.64.156-1.344.156-2.5 0-3.828-1.64-1.312-1.657-1.312-4.782t1.312-4.781q1.328-1.656 3.828-1.656.703 0 1.344.156.656.156 1.219.453v2.719q-.625-.579-1.219-.844-.594-.281-1.219-.281-1.344 0-2.031 1.078-.687 1.062-.687 3.156t.687 3.172q.688 1.062 2.031 1.062.625 0 1.219-.265.594-.281 1.219-.86z"/><text x="269" y="132.57" fill="#D9B8FF" font-family="Helvetica" font-size="17" textLength="155">gcp_machine_type</text><rect width="108" height="39.789" x="279.5" y="7" fill="#3D176E" rx="2.5" ry="2.5" style="stroke:#000d19;stroke-width:.5"/><circle cx="294.5" cy="26.895" r="11" fill="#ADD1B2" style="stroke:#181818;stroke-width:1"/><path d="M297.469 32.535q-.578.297-1.219.438-.64.156-1.344.156-2.5 0-3.828-1.64-1.312-1.657-1.312-4.782t1.312-4.781q1.328-1.656 3.828-1.656.703 0 1.344.156.656.156 1.219.453v2.719q-.625-.578-1.219-.844-.594-.281-1.219-.281-1.344 0-2.031 1.078-.687 1.062-.687 3.156t.687 3.172q.688 1.062 2.031 1.062.625 0 1.219-.265.594-.281 1.219-.86z"/><text x="313.5" y="32.78" fill="#D9B8FF" font-family="Helvetica" font-size="17" textLength="66">gcp_sku</text><path fill="none" d="M290.43 147.01c-38.22 17.14-88.286 39.593-126.476 56.733" style="stroke:#1a83af;stroke-width:2"/><path fill="#1A83AF" d="m158.48 206.2 9.849-.036-5.287-2.011 2.011-5.287z" style="stroke:#1a83af;stroke-width:2"/><path fill="none" d="M333.5 147.01v53.19" style="stroke:#1a83af;stroke-width:2"/><path fill="#1A83AF" d="m333.5 206.2 4-9-4 4-4-4z" style="stroke:#1a83af;stroke-width:2"/><path fill="none" d="M378.15 147.01c39.62 17.14 91.694 39.666 131.284 56.806" style="stroke:#1a83af;stroke-width:2"/><path fill="#1A83AF" d="m514.94 206.2-6.67-7.246 2.082 5.26-5.26 2.081z" style="stroke:#1a83af;stroke-width:2"/><path fill="none" d="M333.5 47.22v53.19" style="stroke:#1a83af;stroke-width:2"/><path fill="#1A83AF" d="m333.5 106.41 4-9-4 4-4-4z" style="stroke:#1a83af;stroke-width:2"/></svg>
